build/Karasa-Jaga/scalable/categories/preferences-system-symbolic.svg

<svg height="16" width="16" xmlns="http://www.w3.org/2000/svg"><g fill="#bebebe"><path d="m12.550781.28515625c-1.9114 0-2.9374997.46889993-2.9374998 2.37499995 0 .39829-.4369399 1.8628301-.3125 2.21875l-1.15625 1.5625 1.625 1.5c.0205991-.0002567.0183781.064819.21875.125l1.4374998-1.09375c.35692.1241001.72567.21875 1.125.21875 1.9114 0 2.90625-1.0626499 2.90625-2.96875 0-.3982899-.09431-.80034-.21875-1.15625l-1.3125 1.40625c-.738713.0585161-1.341513-.1100526-1.71875-.59375-.387348-.3862999-.3561-1.39498.03125-1.78125l2.0625-1.12499995c-.35692-.12412-1.35067-.6875-1.75-.6875zm-.304687.87499995-.400391.21875a.81811854.81811854 0 0 0 -.185547.1386719c-.437987.4367657-.53372.9530645-.544922 1.453125-.010806.4824219.070448.9956092.482422 1.4375.582756.7158295 1.510254.9507515 2.392578.8808594a.81811854.81811854 0 0 0 .353516-.1132813c-.083901.2048124-.084078.5466385-.210938.6777344-.305172.3153668-.777928.5195313-1.582031.5195313-.270068 0-.541763-.0647538-.855469-.1738281a.81811854.81811854 0 0 0 -.765624.1230468l-.9355474.7128906-.7558594-.6972656.7207032-.9726562a.81811854.81811854 0 0 0 .1132816-.7558594c.075797.2167936.018726.0793916.037109-.0722656.018383-.1516573.058317-.3657531.103516-.5878906.045198-.2221376.095004-.4534046.136718-.6660157.041715-.2126111.082032-.3739046.082032-.6230469 0-.8062603.156587-1.0563442.410156-1.2382812.208365-.1495025.768184-.2238905 1.404297-.2617188zm-6.0078128 7.03125c-1.5688985 1.2470734-2.8671725 2.0000688-4.625 3.6249998-.0164379.0152-.0459789.01589-.0625.03125-.60289242.283291-1.03124995.914775-1.03124995 1.625 0 .97962.80162985 1.75 1.78124995 1.75.558572 0 1.0498685-.252703 1.375-.65625.031252-.03879.065797-.08362.09375-.125l4.3125-4.4999998zm-.0507812 1.0800782.7363281.6972656-3.7441406 3.90625a.81811854.81811854 0 0 0 -.0878906.109375c-.0063657.009423-.0298972.040014-.0527344.068359-.1772181.21996-.4264339.351563-.7382813.351563-.5507469 0-.9628906-.398291-.9628906-.931641 0-.381303.2461596-.737039.5605469-.884765a.81811854.81811854 0 0 0 .1835937-.119141c.0398217-.026003.0364871-.005055.0859376-.050781 1.494381-1.381402 2.667721-2.120883 4.0195312-3.1464846z"/><path d="m1.7597656.33984375-1.24999998 1.21093745 1.00195318 1.9765626c.4336.43917 1.1492112.5413387 1.7070312.2929687l5.8886719 5.9648437c-.282936.5620588-.1568542 1.3014938.296875 1.7382818l.3554687.359374c.6079734.069853.8785864.341728.8085934.81836l2.783203 2.818359c.54885.555948 1.555806.564922 2.113282.017578.557472-.547344.564475-1.551475.015625-2.107421l-2.716797-2.751954c-.691662.003012-.721441-.419922-.800781-.8105465l-.427735-.4355469c-.229264-.2371029-.540099-.3937101-.867187-.4394531-.286543-.032933-.582075.0193612-.839844.1484375-.010365-.0001911-.020883-.0000244-.03125 0l-5.8886719-5.9960938c.2629-.5577.185885-1.2862412-.265625-1.7070312zm.1074219.88671875 1.2929687.7539063c.170648.1774043.2400366.5758641.1054688.8613281a.71117717.71117717 0 0 0 -.0664062.2675781.71117717.71117717 0 0 0 -.2695313.0605469c-.2723764.1212759-.6633174.0430661-.8710937-.1367188l-.6777344-1.3359375zm8.7109375 8.4746094c.165039.0252153.33252.1079619.445313.2246093a.71117717.71117717 0 0 0 .003906.0039063l.324218.3300785c.029729.164638.030686.317951.191407.55664.179439.26649.517349.461584.886719.53711l-.171876-.175782.509766.210938c-.113482.000494-.226803-.012442-.33789-.035156l2.544921 2.576172c.245971.24915.241543.854784-.007812 1.099609-.249242.244712-.863337.239454-1.109375-.009766l-2.757813-2.792969c-.056154-.20666-.023548-.434101-.175781-.58789-.196158-.198163-.45659-.230761-.703125-.300781l-.3105468-.314453a.71117717.71117717 0 0 0 -.0117187-.011719c-.2122665-.204341-.2884112-.643709-.15625-.90625a.71117717.71117717 0 0 0 .0722656-.2539065.71117717.71117717 0 0 0 .3320309-.0742187c.129579-.0648859.28715-.0911148.431641-.0761719z"/></g></svg>

<?xml version="1.0" encoding="UTF-8" standalone="no"?>
<!-- Created with Inkscape (http://www.inkscape.org/) -->

<svg
   xmlns:dc="http://purl.org/dc/elements/1.1/"
   xmlns:cc="http://creativecommons.org/ns#"
   xmlns:rdf="http://www.w3.org/1999/02/22-rdf-syntax-ns#"
   xmlns:svg="http://www.w3.org/2000/svg"
   xmlns="http://www.w3.org/2000/svg"
   xmlns:sodipodi="http://sodipodi.sourceforge.net/DTD/sodipodi-0.dtd"
   xmlns:inkscape="http://www.inkscape.org/namespaces/inkscape"
   id="svg7384"
   height="16"
   width="16"
   version="1.1"
   inkscape:version="0.92.2 (unknown)"
   sodipodi:docname="preferences-system-symbolic.svg">
  <defs
     id="defs4832" />
  <sodipodi:namedview
     pagecolor="#ffffff"
     bordercolor="#666666"
     borderopacity="1"
     objecttolerance="10"
     gridtolerance="10"
     guidetolerance="10"
     inkscape:pageopacity="0"
     inkscape:pageshadow="2"
     inkscape:window-width="1366"
     inkscape:window-height="711"
     id="namedview4830"
     showgrid="false"
     inkscape:zoom="20.85965"
     inkscape:cx="9.4014235"
     inkscape:cy="4.4205216"
     inkscape:window-x="0"
     inkscape:window-y="0"
     inkscape:window-maximized="1"
     inkscape:current-layer="svg7384" />
  <metadata
     id="metadata90">
    <rdf:RDF>
      <cc:Work
         rdf:about="">
        <dc:format>image/svg+xml</dc:format>
        <dc:type
           rdf:resource="http://purl.org/dc/dcmitype/StillImage" />
        <dc:title>Gnome Symbolic Icon Theme</dc:title>
      </cc:Work>
    </rdf:RDF>
  </metadata>
  <title
     id="title9167">Gnome Symbolic Icon Theme</title>
  <path
     style="text-indent:0;text-transform:none;block-progression:tb;color:#000000;fill:#bebebe"
     d="M 12.550781 0.28515625 C 10.639381 0.28515625 9.6132813 0.75405618 9.6132812 2.6601562 C 9.6132812 3.0584462 9.1763413 4.5229863 9.3007812 4.8789062 L 8.1445312 6.4414062 L 9.7695312 7.9414062 C 9.7901303 7.9411495 9.7879093 8.0062252 9.9882812 8.0664062 L 11.425781 6.9726562 C 11.782701 7.0967563 12.151451 7.1914062 12.550781 7.1914062 C 14.462181 7.1914062 15.457031 6.1287563 15.457031 4.2226562 C 15.457031 3.8243663 15.362721 3.4223162 15.238281 3.0664062 L 13.925781 4.4726562 C 13.187068 4.5311723 12.584268 4.3626036 12.207031 3.8789062 C 11.819683 3.4926063 11.850931 2.4839262 12.238281 2.0976562 L 14.300781 0.97265625 C 13.943861 0.84853625 12.950111 0.28515625 12.550781 0.28515625 z M 12.246094 1.1601562 L 11.845703 1.3789062 A 0.81811854 0.81811854 0 0 0 11.660156 1.5175781 C 11.222169 1.9543438 11.126436 2.4706426 11.115234 2.9707031 C 11.104428 3.453125 11.185682 3.9663123 11.597656 4.4082031 C 12.180412 5.1240326 13.10791 5.3589546 13.990234 5.2890625 A 0.81811854 0.81811854 0 0 0 14.34375 5.1757812 C 14.259849 5.3805936 14.259672 5.7224197 14.132812 5.8535156 C 13.82764 6.1688824 13.354884 6.3730469 12.550781 6.3730469 C 12.280713 6.3730469 12.009018 6.3082931 11.695312 6.1992188 A 0.81811854 0.81811854 0 0 0 10.929688 6.3222656 L 9.9941406 7.0351562 L 9.2382812 6.3378906 L 9.9589844 5.3652344 A 0.81811854 0.81811854 0 0 0 10.072266 4.609375 C 10.148063 4.8261686 10.090992 4.6887666 10.109375 4.5371094 C 10.127758 4.3854521 10.167692 4.1713563 10.212891 3.9492188 C 10.258089 3.7270812 10.307895 3.4958142 10.349609 3.2832031 C 10.391324 3.070592 10.431641 2.9092985 10.431641 2.6601562 C 10.431641 1.8538959 10.588228 1.603812 10.841797 1.421875 C 11.050162 1.2723725 11.609981 1.1979845 12.246094 1.1601562 z M 6.2382812 8.1914062 C 4.6693827 9.4384796 3.3711087 10.191475 1.6132812 11.816406 C 1.5968433 11.831606 1.5673023 11.832296 1.5507812 11.847656 C 0.94788878 12.130947 0.51953125 12.762431 0.51953125 13.472656 C 0.51953125 14.452276 1.3211611 15.222656 2.3007812 15.222656 C 2.8593532 15.222656 3.3506497 14.969953 3.6757812 14.566406 C 3.7070332 14.527616 3.7415782 14.482786 3.7695312 14.441406 L 8.0820312 9.9414062 L 6.2382812 8.1914062 z M 6.1875 9.2714844 L 6.9238281 9.96875 L 3.1796875 13.875 A 0.81811854 0.81811854 0 0 0 3.0917969 13.984375 C 3.0854312 13.993798 3.0618997 14.024389 3.0390625 14.052734 C 2.8618444 14.272694 2.6126286 14.404297 2.3007812 14.404297 C 1.7500343 14.404297 1.3378906 14.006006 1.3378906 13.472656 C 1.3378906 13.091353 1.5840502 12.735617 1.8984375 12.587891 A 0.81811854 0.81811854 0 0 0 2.0820312 12.46875 C 2.1218529 12.442747 2.1185183 12.463695 2.1679688 12.417969 C 3.6623498 11.036567 4.8356898 10.297086 6.1875 9.2714844 z "
     id="path3908" />
  <path
     style="text-indent:0;text-transform:none;block-progression:tb;color:#000000;fill:#bebebe"
     d="M 1.7597656 0.33984375 L 0.50976562 1.5507812 L 1.5117188 3.5273438 C 1.9453188 3.9665138 2.66093 4.0686825 3.21875 3.8203125 L 9.1074219 9.7851562 C 8.8244859 10.347215 8.9505677 11.08665 9.4042969 11.523438 L 9.7597656 11.882812 C 10.367739 11.952665 10.638352 12.22454 10.568359 12.701172 L 13.351562 15.519531 C 13.900412 16.075479 14.907368 16.084453 15.464844 15.537109 C 16.022316 14.989765 16.029319 13.985634 15.480469 13.429688 L 12.763672 10.677734 C 12.07201 10.680746 12.042231 10.257812 11.962891 9.8671875 L 11.535156 9.4316406 C 11.305892 9.1945377 10.995057 9.0379305 10.667969 8.9921875 C 10.381426 8.9592545 10.085894 9.0115487 9.828125 9.140625 C 9.81776 9.1404339 9.807242 9.1406006 9.796875 9.140625 L 3.9082031 3.1445312 C 4.1711031 2.5868312 4.0940881 1.85829 3.6425781 1.4375 L 1.7597656 0.33984375 z M 1.8671875 1.2265625 L 3.1601562 1.9804688 C 3.3308042 2.1578731 3.4001928 2.5563329 3.265625 2.8417969 A 0.71117717 0.71117717 0 0 0 3.1992188 3.109375 A 0.71117717 0.71117717 0 0 0 2.9296875 3.1699219 C 2.6573111 3.2911978 2.2663701 3.212988 2.0585938 3.0332031 L 1.3808594 1.6972656 L 1.8671875 1.2265625 z M 10.578125 9.7011719 C 10.743164 9.7263872 10.910645 9.8091338 11.023438 9.9257812 A 0.71117717 0.71117717 0 0 0 11.027344 9.9296875 L 11.351562 10.259766 C 11.381291 10.424404 11.382248 10.577717 11.542969 10.816406 C 11.722408 11.082896 12.060318 11.27799 12.429688 11.353516 L 12.257812 11.177734 L 12.767578 11.388672 C 12.654096 11.389166 12.540775 11.37623 12.429688 11.353516 L 14.974609 13.929688 C 15.22058 14.178838 15.216152 14.784472 14.966797 15.029297 C 14.717555 15.274009 14.10346 15.268751 13.857422 15.019531 L 11.099609 12.226562 C 11.043455 12.019902 11.076061 11.792461 10.923828 11.638672 C 10.72767 11.440509 10.467238 11.407911 10.220703 11.337891 L 9.9101562 11.023438 A 0.71117717 0.71117717 0 0 0 9.8984375 11.011719 C 9.686171 10.807378 9.6100263 10.36801 9.7421875 10.105469 A 0.71117717 0.71117717 0 0 0 9.8144531 9.8515625 A 0.71117717 0.71117717 0 0 0 10.146484 9.7773438 C 10.276063 9.7124579 10.433634 9.686229 10.578125 9.7011719 z "
     id="path3910" />
</svg>
